!!!COM:	L van Beethoven
!!!OTL:	Scherzo
**kern	**dynam
*I"Violoncello	*
*clefF4	*
*k[b-e-]	*
*B-:	*
*M2/2	*
=1	=1
4BB-	fp
4r	.
2r	.
=2	=2
1r	.
=3	=3
1r	.
=4	=4
1r	.
=5	=5
2r	.
4r	.
(qqC	p
8BB-	.
16AA	.
16BB-)	.
=6	=6
4C	.
4FF	.
4C	.
4FF	.
=7	=7
(2D	.
4BB-)	.
4r	.
=8	=8
1r	.
=9	=9
2r	.
4r	.
(qqC	p
8BB-	.
16AA	.
16BB-)	.
=10	=10
4C	.
4FF	.
4C	.
4FF	.
=11	=11
(2D	.
2BB-	.
=12	=12
2GG	.
2C)	.
=13	=13
4FF	.
4r	.
2r	.
=14	=14
2r	.
4r	.
(qqD	pp
8C	.
16BB	.
16C)	.
=15	=15
4FF	.
4r	.
2r	.
=16	=16
2r	.
4r	.
(qqD	.
8C	.
16BB	.
16C)	.
=17	=17
!LO:TX:t=cresc.	!
4FF	<
(qqD	.
8C	.
16BB	.
16C)	.
4FF	.
(qqD	.
8C	.
16BB	.
16C)	[
=18	=18
8FFL	f
8GG	.
8AA	.
8BB-	.
8CL	.
8D	.
8E-	.
8C	.
=19	=19
4BB-	fp
4BB-	.
4BB-	.
4BB-	.
=20	=20
4BB-	.
4BB-	.
4BB-	.
4BB-	.
=21	=21
4BB-	fp
4BB-	.
4BB-	.
4BB-	.
=22	=22
4BB-	.
4BB-	.
4BB-	.
4BB-	.
=23	=23
4BB-	.
4BB-	.
4BB-	.
4BB-	.
=24	=24
4AA	.
4AA	.
4AA	.
4AA	.
=25	=25
4BB-	.
4BB-	.
4BB-	.
4BB-	.
=26	=26
4AA	.
4AA	.
4AA	.
4AA	.
=27	=27
4BB-	.
4BB-	.
4BB-	.
4BB-	.
=28	=28
4AA	.
4AA	.
4AA	.
4AA	.
=29	=29
4BB-	.
4r	.
!LO:TX:t=cresc.	!
(2d	<
=30	=30
2B-	.
2G	.
=31	=31
2E	.
2F	.
=32	=32
2D	.
2G)	.
=33	=33
4C	[
2c	sf
4c	.
=34	=34
4C	.
2c	sf
4c	.
=35	=35
4C	.
4c	.
4C	.
4c	.
=36	=36
4C	.
4c	.
4C	.
4c	.
=37	=37
4C	.
2C	.
4C	.
=38	=38
4CC	.
2C	.
4C	.
=39	=39
4CC	.
4C	.
4CC	.
8C	.
8C	.
=40	=40
8BBL	.
8C	.
8D	.
8E	.
8FL	.
8G	.
8A	.
8B	.
=41	=41
4c	.
4G	.
4c	.
4G	.
=42	=42
4c	.
4G	.
4C	.
4GG	.
=43	=43
4CC	.
4r	.
4C	.
4r	.
=44	=44
4CC	.
4r	.
2r	.
=45	=45
4F	p
4r	.
4.F	.
8F	.
=46	=46
[2F	.
4.F	.
8F	.
=47	=47
4.E	.
8F	.
4.E	.
8F	.
=48	=48
1C	<
=49	=49
4F	[
4r	.
2r	.
=50	=50
1r	.
=51	=51
1r	.
=52	=52
(4c	<
4d-	.
4c)	>
4C	.
=53	=53
4F	]
4r	.
4.E-	.
8E-	.
=54	=54
[2D-	sf
4.D-	>
8d-	]
=55	=55
4e-	p
4r	.
4d-	.
4r	.
=56	=56
1c	pp
=57	=57
!LO:TX:t=cresc.	!
4D-	.
4r	.
4.D-	.
8D-	.
=58	=58
[2BB-	sf
4.BB-	>
8B-	]
=59	=59
4c	p
4r	.
4B-	.
4r	.
=60	=60
!LO:TX:t=decresc.	!
[2A-	.
4.A-	.
8B-	.
=61	=61
4c	.
4r	.
4B-	.
4r	.
=62	=62
[2A	pp
4.A	.
8B-	.
=63	=63
4c	.
4r	.
4B-	.
4r	.
=64	=64
1A	sf
=65	=65
1E	sf
=66	=66
2.F	sf
4D	.
=67	=67
4BB-	.
4r	.
4C	.
4r	.
=68	=68
1r	.
=69	=69
4r	.
(4e	p
4d#	.
4e)	.
=70	=70
4r	.
!LO:TX:t=cresc.	!
(4F	.
4E	.
4D)	.
=71	=71
4C#	.
4r	.
4D	.
4r	.
=72	=72
4AA	.
4r	.
4BB-	.
4r	.
=73	=73
4FF#	.
4r	.
4GG	.
4r	.
=74	=74
4C#	p
4r	.
2r	.
=75	=75
4D	.
4r	.
2r	.
=76	=76
4BB-	.
4r	.
2r	.
=77	=77
!LO:TX:t=cresc.	!
4BB	.
4r	.
2r	.
=78	=78
4C	f
4r	.
2r	.
=79	=79
8CCL	sf
8EE	.
8GG	.
8C	.
8EL	.
8G	.
8c	.
8c	.
=80	=80
4F	.
4r	.
2r	.
=81	=81
1r	.
=82	=82
1r	.
=83	=83
1r	.
=84	=84
2r	.
4r	.
(qqGG	.
8FF	.
16EE	.
16FF)	.
=85	=85
!LO:TX:t=cresc.	!
4GG	<
4CC	.
4GG	.
4CC	.
=86	=86
(2AA	sf
4FF)	.
4FF	.
=87	=87
4CC	.
4C	.
4CC	.
4C	.
=88	=88
8FFL	f
8F	.
8F	.
8F	.
8FFL	.
8F	.
8F	.
8F	.
=89	=89
8FFL	.
8F	.
8F	.
8F	.
8FFL	.
8F	.
8F	.
8F	.
=90	=90
4FF	.
4r	.
4CC 4C	ff
4r	.
=91	=91
4FF	.
4r	.
2r	.
=92:|!	=92:|!
4FF	.
4r	.
4r	.
(qqD	f
8C	.
16BB	.
16C)	.
=93!|:	=93!|:
4AA	.
4F	.
4C	.
4A	.
=94	=94
2.F	f
4r	.
=95	=95
1r	.
=96	=96
1r	.
=97	=97
8FFL	p
8AA	.
8FF	.
8AA	.
8FFL	.
8AA	.
8FF	.
8AA	.
=98	=98
4FF	.
4r	.
2r	.
=99	=99
8FFL	pp
8AA	.
8FF	.
8AA	.
8FFL	.
8AA	.
8FF	.
8AA	.
=100	=100
4FF	.
4r	.
2r	.
=101	=101
!LO:TX:t=cresc.	!
8FFL	<
8AA	.
8FF	.
8AA	.
8FFL	.
8AA	.
8FF	.
8AA	.
=102	=102
8EE-L	.
8AA	.
8EE-	.
8AA	.
8EE-L	.
8AA	.
8EE-	.
8AA	[
=103	=103
8DDL	fp
8AA	.
8DD	.
8AA	.
8DDL	.
8AA	.
8DD	.
8AA	.
=104	=104
8DDL	.
8AA	.
8DD	.
8AA	.
8DDL	.
8AA	.
8DD	.
8AA	.
=105	=105
!LO:TX:t=cresc.	!
8DDL	<
8AA	.
8DD	.
8AA	.
8DDL	.
8AA	.
8DD	.
8AA	.
=106	=106
8DDL	<
8AA	.
8DD	.
8AA	.
8DDL	.
8AA	.
8DD	.
8AA	[
=107	=107
8CCL	fp
8AA	.
8CC	.
8AA	.
8CCL	.
8AA	.
8CC	.
8AA	.
=108	=108
8CCL	[
8AA	.
8CC	.
8AA	.
8CCL	.
8AA	.
8CC	.
8AA	.
=109	=109
!LO:TX:t=cresc.	!
8CCL	<
8AA	.
8CC	.
8AA	.
8CCL	.
8AA	.
8CC	.
8AA	.
=110	=110
8CCL	.
8AA	.
8CC	.
8AA	.
8CCL	.
8AA	.
8CC	.
8AA	.
=111	=111
8BB-L	f
8D	.
8BB-	.
8D	.
2r	.
=112	=112
8FF#L	sf
8D	.
8FF#	.
8D	.
2r	.
=113	=113
1r	.
=114	=114
2r	.
4r	.
(8AA	p
8GG)	.
=115	=115
8FF#L	.
8GG	.
8AA	.
8BB-	.
8CL	.
8D	.
8E	.
8F#	.
=116	=116
8GL	.
8A	.
8B-	.
8c	.
4d	.
4d	.
=117	=117
4d	.
4d	.
4d	.
4d	.
=118	=118
(2B-	.
4G)	.
4r	.
=119	=119
1r	.
=120	=120
2r	.
4r	.
(8GG	f
8FF)	.
=121	=121
8EEL	.
8FF	.
8GG	.
8AA	.
8BB-L	.
8C	.
8D	.
8E	.
=122	=122
8FL	.
8G	.
8A	.
8B-	.
4c	.
4c	p
=123	=123
4c	.
4c	.
4c	.
4c	.
=124	=124
(2A	.
4F)	.
4r	.
=125	=125
1r	.
=126	=126
2r	.
4r	.
(8FF	f
8EE-)	.
=127	=127
8DDL	.
8EE-	.
8FF	.
8GG	.
8AA-L	.
8BB-	.
8C	.
8D	.
=128	=128
8E-L	.
8F	.
8G	.
8A-	.
4B-	.
4B-	p
=129	=129
4B-	.
4B-	.
4B-	.
4B-	.
=130	=130
(2G	.
4E-)	.
4r	.
=131	=131
1r	.
=132	=132
1r	.
=133	=133
1r	.
=134	=134
2r	.
4r	.
4GG-	f
=135	=135
4GG-	.
4GG-	.
4GG-	.
4GG-	.
=136	=136
(2EE-	.
4CC)	.
(8C	ff
8BB-)	.
=137	=137
8AAL	.
8BB-	.
8C	.
8D-	.
8E-L	.
8F	.
8G	.
8A	.
=138	=138
8B-L	.
8c	.
8d-	.
8e-	.
8fL	sf
8e-	.
8d-	.
8c	.
=139	=139
8B-L	.
8A-	.
8G-	.
8F	.
4E	.
4E	.
=140	=140
2.F	fp
4r	.
=141	=141
1r	.
=142	=142
1r	.
=143	=143
1r	.
=144	=144
4F	pp
4C	.
4F	.
4C	.
=145	=145
4G	.
4C	.
4G	.
4C	.
=146	=146
4A	.
4F	.
4A	.
4F	.
=147	=147
4B-	.
4F	.
4B	.
4F	.
=148	=148
(4c	.
4B	.
4c	.
4d)	.
=149	=149
(4e-	<
4d	.
4e-	.
4B	.
=150	=150
4c	>
4B	.
4c	.
4d)	.
=151	=151
(4e-	<
4d	.
4e-	.
4B	.
=152	=152
4c)	[
4r	.
2r	.
=153	=153
1r	.
=154	=154
2r	.
(8FL	p
8G	.
8F	.
8G	.
=155	=155
8AL	.
8B-	.
8A	.
8B-)	.
4c	.
4c	.
=156	=156
4c	.
4r	.
2r	.
=157	=157
1r	.
=158	=158
2r	.
(8AL	.
8B-	.
8A	.
8B-	.
=159	=159
8cL	.
8d	.
8c	.
8d)	.
4e-	.
4e-	.
=160	=160
(2.e-	.
8d	.
8e-	.
=161	=161
4f	.
4e-	.
4d	.
4c)	.
=162	=162
(2B-	.
2A)	.
=163	=163
2A	.
2r	.
=164	=164
(2.e-	.
8d	.
8e-	.
=165	=165
8dL	.
8e-	.
8d	.
8e-	.
8fL	.
8e-	.
8d	.
8c)	.
=166	=166
(2B-	.
2A)	.
=167	=167
2A	.
2r	.
=168	=168
2r	.
!LO:TX:t=cresc.	!
(4B-	.
4A)	.
=169	=169
2r	.
(4c	.
4B-)	.
=170	=170
2r	.
(4d	.
4c#)	.
=171	=171
2r	.
!LO:TX:t=decresc	!
(4e-	.
4d)	.
=172	=172
2c	p
2r	.
=173	=173
1r	.
=174	=174
[1F	pp
=175	=175
1F	.
=176	=176
4BB-	fp
4r	.
2r	.
=177	=177
1r	.
=178	=178
1r	.
=179	=179
1r	.
=180	=180
2r	.
4r	.
(qqC	p
8BB-	.
16AA	.
16BB-)	.
=181	=181
4C	.
4FF	.
4C	.
4FF	.
=182	=182
(2D	.
4BB-)	.
4r	.
=183	=183
1r	.
=184	=184
2r	.
4r	.
(qqC	.
8BB-	.
16AA	.
16BB-)	.
=185	=185
4C	.
4FF	.
4C	.
4FF	.
=186	=186
(2BB-	.
2GG	.
=187	=187
2GG	.
2C)	.
=188	=188
4FF	.
4r	.
2r	.
=189	=189
2r	.
4r	.
(qqD	pp
8C	.
16BB	.
16C)	.
=190	=190
4FF	.
4r	.
2r	.
=191	=191
2r	.
4r	.
(qqD	.
8C	.
16BB	.
16C)	.
=192	=192
!LO:TX:t=cresc.	!
4FF	<
(qqD	.
8C	.
16BB	.
16C)	.
4FF	.
(qqD	.
8C	.
16BB	.
16C)	.
=193	=193
8FFL	f
8GG	.
8AA	.
8BB-	.
8CL	.
8D	.
8E-	.
8C	.
=194	=194
8DL	.
8BB-	.
8E-	.
8BB-	.
8DL	.
8BB-	.
8E-	.
8BB-	.
=195	=195
8DL	.
8C	.
8BB-	.
8C	.
8DL	.
8E-	.
8F	.
8D	.
=196	=196
4E-	.
4E-	sf
4E-	.
4E-	sf
=197	=197
4E-	.
4E-	.
4E-	.
4E-	sf
=198	=198
4E-	.
4E-	sf
4E-	.
4E-	sf
=199	=199
4E-	p
4r	.
4e-	.
4r	.
=200	=200
4B-	.
4r	.
4B-	.
4r	.
=201	=201
4e-	.
4r	.
4e-	.
4r	.
=202	=202
4A-	.
4r	.
4B-	.
4r	.
=203	=203
4E-	f
4r	.
4E-	.
4r	.
=204	=204
4BB-	.
4r	.
4BB-	.
4r	.
=205	=205
4E-	.
4r	.
4E-	.
4r	.
=206	=206
4G-	.
4r	.
4G-	.
4r	.
=207	=207
4FF	.
2F	sf
4F	.
=208	=208
4FF	.
2F	sf
4F	.
=209	=209
4FF	.
4F	sf
4FF	.
4F	.
=210	=210
4FF	.
4F	.
4FF	.
4F	.
=211	=211
4FF	.
2F	sf
4F	.
=212	=212
4FF	.
2F	sf
4F	.
=213	=213
4FF	.
4F	.
4FF	.
8FF	.
8FF	.
=214	=214
8EEL	.
8FF	.
8GG	.
8AA	.
8BB-L	.
8C	.
8D	.
8E	.
=215	=215
4F	.
4E	.
4F	.
4C	.
=216	=216
4FF	.
4CC	.
4FF	.
4CC	.
=217	=217
4FF	.
4r	.
4F	f
4r	.
=218	=218
4FF	.
4r	.
2r	.
=219	=219
4B-	p
4r	.
4.B-	.
8B-	.
=220	=220
[2B-	.
4.B-	.
8B-	.
=221	=221
4.A	.
8B-	.
4.A	.
8B-	.
=222	=222
1F	<
=223	=223
4B-	[
4r	.
2r	.
=224	=224
1r	.
=225	=225
1r	.
=226	=226
(4f	<
4g-	.
4f	>
4F)	]
=227	=227
4B-	.
4r	.
4.A-	.
8A-	.
=228	=228
[2G-	sf
4.G-	>
8r	]
=229	=229
1r	.
=230	=230
1r	.
=231	=231
!LO:TX:t=cresc.	!
4G-	<
4r	.
4.G-	.
8G-	[
=232	=232
[2E-	sf
4.E-	[
8e-	.
=233	=233
4f	p
4r	.
4e-	.
4r	.
=234	=234
!LO:TX:t=decresc	!
[2d-	.
4.d-	.
8e-	.
=235	=235
4f	.
4r	.
4e-	.
4r	.
=236	=236
[2d	pp
4.d	.
8e-	.
=237	=237
!LO:TX:t=cresc.	!
4f	.
4r	.
4e-	.
4r	.
=238	=238
1d	sf
=239	=239
1A	sf
=240	=240
2.B-	sf
4G	.
=241	=241
4E-	.
4r	.
4F	.
4r	.
=242	=242
4r	.
(4d	p
4c#	.
4d)	.
=243	=243
1r	.
=244	=244
4r	.
!LO:TX:t=cresc.	!
(4B-	<
4A	.
4G)	.
=245	=245
4F#	.
4r	.
4G	.
4r	.
=246	=246
4D	.
4r	.
4E-	.
4r	.
=247	=247
4BB	.
4r	.
4C	.
4r	.
=248	=248
4FF#	p
4r	.
2r	.
=249	=249
4GG	.
4r	.
2r	.
=250	=250
!LO:TX:t=cresc.	!
4E-	.
4r	.
2r	.
=251	=251
4E	.
4r	.
2r	.
=252	=252
4F	f
4r	.
2r	.
=253	=253
8FFL	sf
8AA	.
8C	.
8F	.
8AL	.
8c	.
8f	.
8f	.
=254	=254
4B-	.
4r	.
2r	.
=255	=255
1r	.
=256	=256
1r	.
=257	=257
1r	.
=258	=258
2r	.
4r	.
(qqC	.
8BB-	.
16AA	.
16BB-)	.
=259	=259
4C	.
4FF	.
4C	.
4FF	.
=260	=260
(2D	sf
4BB-)	.
4BB-	.
=261	=261
4FF	.
4F	.
4FF	.
4F	.
=262	=262
8BB-L	f
8B-	.
8B-	.
8B-	.
8BB-L	.
8B-	.
8B-	.
8B-	.
=263	=263
8BB-L	.
8B-	.
8B-	.
8B-	.
8BB-L	.
8B-	.
8B-	.
8B-	.
=264	=264
4BB-	.
4r	.
4F	ff
4r	.
=265	=265
4BB-	.
4r	.
4r	.
(qqD	.
8C	.
16BB	.
16C)	.
=266:|!	=266:|!
4BB-	.
4r	.
2r	.
=267	=267
*k[b-e-a-]	*
*E-:	*
*M2/4	*
!LO:TX:a:B:t=Adagio ma non troppo	!
8E-L	p
8r	.
8E-L	.
8r	.
=268	=268
8DL	.
8r	.
8A-L	.
8r	.
=269	=269
8GL	.
8r	.
8DL	.
8r	.
=270	=270
16E-LL	.
16r	.
16AA-	.
16r	.
16BB-	.
16r	.
8r	.
=271	=271
8EE-L	p
8r	.
(16E-LL	.
16G)	.
(16G	.
16G)	.
=272	=272
(16GLL	.
16F)	.
(16F	.
16D)	.
(16DLL	.
16BB-)	.
(16BB-	.
16AA-)	.
=273	=273
(4GG	.
4AA-)	.
=274	=274
16BB-LL	.
16r	.
16BB-	.
16r	.
8E-L	.
8r	.
=275	=275
16.BB-LL	.
32BB-	.
(16BB-	.
16BB-)	.
8.BB-L	.
16BB-	.
=276	=276
(16BB-LL	.
16BB-	.
16BB-	.
16BB-)	.
8BB-L	.
8r	.
=277	=277
(16.B-LL	.
32c)	.
(16d	.
16e-)	.
8.fL	<
16f	>
=278	=278
(8e-L	<
8c	>
8B-)	]
8r	.
=279	=279
4r	.
8r	.
!LO:TX:t=queste note ben marcate	!
32.r	.
64BB-	p
32.GG	.
64EE-	.
=280	=280
8DDL	.
8r	.
8r	.
32.r	.
64AA-	.
32.BB-	.
64FF	.
=281	=281
8GGL	.
8r	.
8r	.
32.r	.
64FF	.
32.AA-	.
64FF	.
=282	=282
16BB-LL	.
16r	.
16BB-	.
16r	.
8E-L	.
16r	.
16BB-	pp
=283	=283
(8B-L	.
16G-	.
16D	.
8E-L	.
16BB-	.
16D)	.
=284	=284
(16E-LL	.
16F	.
16G-	.
16A	.
16B-LL	.
16c	.
16d-	.
16e)	.
=285	=285
!LO:TX:t=cresc.	!
(8fL	.
16d-	.
16A	.
16B-LL	.
16F	.
16G-	.
16E-)	.
=286	=286
16FLL	pp
16r	.
16FF	.
16r	.
8BB-L	.
8r	.
=287	=287
2r	.
=288	=288
4r	.
(16BB-LL	p
16C	.
16D-	.
16E)	.
=289	=289
!LO:TX:t=cresc.	!
(8FL	.
16D-	.
16AA	.
16BB-LL	.
16FF	.
16GG-	.
16EE-)	.
=290	=290
16FFLL	p
16r	.
16FF	.
16r	.
8BB-L	.
16r	.
(16D-	.
=291	=291
8d-L	fp
16B-	.
16F)	.
(16G-LL	sf
32D)	.
32r	.
(16G-	sf
32D)	.
32r	.
=292	=292
(8B-L	fp
16G-	.
16D)	.
!LO:TX:t=cresc.	!
(16E-LL	.
32BB-)	.
32r	.
(16E-	.
32BB-)	.
32r	.
=293	=293
(16C-LL	fp
16GG	.
16AA-	.
!LO:TX:t=decresc.	!
16EE-	.
16FF-LL	.
16DD	.
16EE-	.
16GG-)	.
=294	=294
16AA-LL	pp
16r	.
16BB-	.
16r	.
8EE-L	.
16r	.
(16D-	.
=295	=295
8d-L)	fp
16B-	.
16F)	.
(16G-LL	sf
32D-)	.
32r	.
(16G-	sf
32D-)	.
32r	.
=296	=296
(8B-L	fp
16G-	.
16D)	.
(16E-LL	sf
32BB-)	.
32r	.
16E-	sf
(16BB-	.
=297	=297
16C-LL	fp
16GG	.
16AA-	.
16EE-	.
16FF-LL	.
16DD	.
16EE-	.
16GG-)	.
=298	=298
16AA-LL	pp
16r	.
16BB-	.
16r	.
8C-L	.
8r	.
=299	=299
2r	.
=300	=300
4r	.
16AALL	pp
16r	.
16AA	.
16r	.
=301	=301
8BB-L	.
8r	.
8B-	.
8r	.
=302	=302
8BB-L	.
8r	.
8B-L	.
8r	.
=303	=303
16B-LL	.
16r	.
*clefG2	*
16bb-	.
16r	.
16bb-LL	.
16r	.
16bb-	.
16r	.
*clefF4	*
=304	=304
32r	.
32B-	.
32r	.
32B-	.
32r	.
32B-	.
32r	.
32B-	.
32r	.
32BB-	.
32r	.
32BB-	.
32r	.
32BB-	.
32r	.
32BB-	.
=305	=305
16r	.
16BB-	.
16r	.
16BB-	.
16r	.
(16BB-	.
16BB-	.
16BB-)	.
=306	=306
16r	.
16BB-	.
16r	.
16BB-	.
16r	.
(16BB-	.
16BB-	.
16BB-)	.
=307	=307
16r	.
16BB-	p
8r	.
16r	.
16B-	.
8r	.
=308	=308
16r	.
16B-	.
8r	.
16B-LL	.
16r	.
16B-	.
16r	.
=309	=309
16BB-LL	.
16r	.
8r	.
4r	.
=310	=310
4r	.
16r	.
(16B-	.
16B-	.
16B-)	.
=311	=311
8E-L	p
8r	.
4r	.
=312	=312
4r	.
8r	.
16r	.
(64G	.
64A-	.
64B-	.
64A-)	.
=313	=313
8GL	.
8r	.
8DL	.
8r	.
=314	=314
16E-LL	.
16r	.
16AA-	.
16r	.
16BB-	.
16r	.
8r	.
=315	=315
8EE-L	.
8r	.
(16E-LL	.
16G)	.
(16G	.
16G)	.
=316	=316
(16A-LL	.
16F)	.
(16F	.
16D)	.
(16DLL	.
16BB-)	.
(16BB-	.
16AA-)	.
=317	=317
(4GG	.
4AA-)	.
=318	=318
16BB-LL	.
16r	.
16BB-	.
16r	.
8E-L	.
8r	.
=319	=319
16.BB-LL	.
32BB-	.
(16BB-	.
16BB-)	.
8.BB-L	.
16BB-	.
=320	=320
16BB-LL	.
16BB-	.
16BB-	.
16BB-	.
8BB-L	.
8r	.
=321	=321
(16.B-LL	.
32c)	.
(16d	.
16e-)	.
8.fL	<
16f	[
=322	=322
(8e-L	<
8c	>
8B-)	]
8r	.
=323	=323
32EE-LLL	.
32B-	.
32r	.
32G	.
32r	.
32E-	.
32BB-	.
32GG	.
8EE-L	.
8r	.
=324	=324
32DDLLL	.
32B-	.
32r	.
32F	.
32r	.
32F	.
32D	.
32BB-	.
8AA-L	.
8r	.
=325	=325
32GGLLL	.
32B-	.
32r	.
32G	.
32r	.
32E-	.
32BB-	.
32GG	.
8AA-L	.
32r	.
32F	.
32C	.
32GG	.
=326	=326
16BB-LL	.
16r	.
16BB-	.
16r	.
8E-L	.
8r	.
=327	=327
16.B-LL	.
32B-	.
16B-	.
16B-	.
(8.B-L	<
16B	.
=328	=328
16cLL	>
16B	.
16c	.
16A-)	]
8B-L	.
8r	.
=329	=329
!LO:TX:t=cresc.	!
16.B-LL	.
32B-	.
16B-	.
16B-	.
8.B-L	.
16c-	sf
=330	=330
16B-LL	.
16c-	sf
16B-	.
16c-	sf
8B-L	.
8r	.
=331	=331
8cL	p
8r	.
8AA-L	ff
8r	.
=332	=332
16BB-LL	p
16r	.
16BB-	.
16r	.
16EE-	.
16r	.
16r	.
16GG	pp
=333	=333
(8GL	.
16E-	.
16BB	.
8CL	.
16GG	.
16BB	.
=334	=334
16CLL	.
16D	.
16E-	.
16F#	.
8GL)	.
8r	.
=335	=335
8.CCL 8.C	pp
16CC 16C	sf
!LO:TX:t=cresc.	!
!LO:TX:t=cresc.	!
8.CCL 8.C	.
16CC 16C	sf
=336	=336
8.CCL 8.C	.
16CC 16C	sf
16CCLL 16C	p
(8c	.
16B)	.
=337	=337
!LO:TX:t=cresc.	!
(16A-	.
16G	.
16F	.
16E-	.
16DLL	.
16C	.
16BB-	.
16AA-)	.
=338	=338
8GGL	p
8r	.
8AA-L	ff
8r	.
=339	=339
16BB-LL	pp
16r	.
16BB-	.
16r	.
16EE-	.
16r	.
8r	.
=340	=340
([4BB- 4A-	.
4BB-) 4G	.
=341	=341
16BB-LL	.
16r	.
16BB-	.
16r	.
16E-	.
16r	.
8r	.
=342	=342
([4BB- 4A-	.
4BB-) 4G	.
=343	=343
16BB-LL	.
16r	.
16BB-	.
16r	.
16E-	.
16r	.
8r	.
=344	=344
2r	.
=345	=345
8r	.
!LO:TX:t=pizz.	!
8BB-	p
8E-J	.
8r	.
=346!|:	=346!|:
*k[b-e-]	*
*B-:	*
*M3/4	*
!LO:TX:a:B:t=Allegro	!
!LO:TX:t=arco	!
8FL	p
8G	.
8A	.
=347	=347
4B-	.
8r	.
8FF	.
8AA	.
8FF	.
=348	=348
4BB-	.
8r	.
8F	.
8B-	.
8A	.
=349	=349
4B-	.
8r	.
8FF	.
8BB-	.
8EE-	.
=350	=350
8FFL	.
8F	.
8F	.
8r	.
4r	.
=351	=351
4r	.
8r	.
8F#	.
8F#	.
8G	.
=352	=352
4E-	.
8r	.
8C	p
8D	.
8E-	.
=353	=353
8FFL	.
8F	.
8F	.
8F	.
8F	.
8F	.
=354	=354
4BB-	.
8r	.
=:|!|:	=:|!|:
8F#L	f
8G	.
8G	.
=355	=355
4F#	.
4r	.
4r	.
=356	=356
4r	.
8r	.
8E	f
8F	.
8F	.
=357	=357
4E	.
4r	.
4r	.
=358	=358
2.r	.
=359	=359
4r	.
8r	.
!LO:TX:t=cresc.	!
8C	<
8C	.
8D	.
=360	=360
8E-L	.
8BB	.
8C	.
8D	.
8E-	.
8E	.
=361	=361
8FFL	[
8F	.
2F	sf
=362	=362
8FFL	.
8F	.
2F	sf
=363	=363
4FF	.
4r	.
4r	.
=364	=364
2.r	.
=365	=365
2.r	.
=366	=366
2.r	.
=367	=367
2.r	.
=368	=368
4F	f
4E-	.
4C	.
=369	=369
8BB-L	p
8B-	.
8B-	.
8c	.
8B-	.
[8c	sf
=370	=370
8cL	.
8B-	.
8B-	.
8A	.
8B-	.
[8c	sf
=371	=371
8cL	.
8d	.
8d	.
8c	.
8d	.
8e-	.
=372	=372
4c	.
8r	.
8A	.
8A	.
8B	.
=373	=373
4c	.
8r	.
8F#	.
8F#	.
8G	.
=374	=374
4E-	.
8r	.
8C	.
8D	.
8E-	.
=375	=375
8FFL	.
8F	.
8F	.
8F	.
8F	.
8F	.
=376	=376
8BB-L	.
8B-	.
2B-	sf
=377	=377
8BB-L	.
8B-	.
2B-	sf
=378	=378
8BB-L	.
!LO:TX:t=cresc.	!
8B-	<
8B-	.
8B-	.
8B-	.
8B-	.
=379	=379
4F	f
4F	.
4F	.
=380	=380
4BB-	.
4r	.
4r	.
=381	=381
4r	.
8r	.
4GG	.
[8EE	sf
=382	=382
8EEL	.
8FF	.
8FF	.
8r	.
4r	.
=383	=383
4r	.
8r	.
4GG	sf
[8EE	.
=384	=384
8EEL	.
8FF	.
8FF	.
8r	.
4r	.
=385	=385
2.r	.
=386	=386
2.r	.
=387	=387
8gL	.
8f	.
8f	.
8e	.
8e	.
8e-	.
=388	=388
8e-L	.
8d	.
8d	.
8A	.
8A	.
8A-	.
=389	=389
8A-L	.
8G	.
8G	.
8D	.
8E-	.
8E-	.
=390	=390
8FL	ff
8F	.
8G-	.
8G-	.
8G-	.
8G-	.
=391	=391
4F	.
4r	.
4r	.
=392	=392
4FF	p
4r	.
4r	.
=393	=393
4BB-	.
4r	.
4r	.
=394	=394
8r	.
8BB-L	.
8BB-	.
=395:|!	=395:|!
8r	.
8BB-L	.
8BB-	.
8r	.
8r	.
=!|:	=!|:
!LO:TX:t=TRIO	!
8r	.
=396	=396
2.r	.
=397	=397
4BB-	f
4r	.
(4A	p
=398	=398
4B-	.
4A	.
4B-	.
=399	=399
4F)	.
4r	.
4r	.
=400	=400
2.r	.
=401	=401
4BB-	f
4r	.
(4G	p
=402	=402
4D)	.
4E-	.
4F	.
=403	=403
4BB-	.
4r	.
8r	.
=:|!|:	=:|!|:
8r	.
=404	=404
4r	.
(4B	p
4G	.
=405	=405
4c)	.
(4C	.
4BB-	.
=406	=406
4AA)	.
(4A	.
4F)	.
=407	=407
4BB-	.
4D	.
4BB-	.
=408	=408
2.r	.
=409	=409
4AA-	f
4r	.
(4G	p
=410	=410
4D	.
4E-	.
4F)	.
=411	=411
4BB-	.
4r	.
8r	.
=412:|!	=412:|!
4BB-	.
4r	.
4r	.
=413	=413
8BB-L 8F	ff
8BB- 8F	.
8BB- 8F	.
8r	.
4r	.
=414	=414
8BB-L 8F	ff
8BB- 8F	.
8BB- 8F	.
8r	.
4r	.
=415	=415
8BB-L	.
8F	.
8BB-	.
8F	.
!LO:TX:t=Scherzo D.C.	!
8FF	.
8F	.
=416	=416
4BB-	.
8r	.
=417	=417
*M2/4	*
!LO:TX:t=Adagio	!
!LO:TX:t=LA MALINCONIA	!
2r	.
=418	=418
2r	.
=419	=419
2r	.
=420	=420
2r	.
=421	=421
4BB-	pp
(8BB-L	.
8BB-)	.
=422	=422
4BB-	.
4r	.
=423	=423
4BB-	.
(8B-L	.
8B-)	.
=424	=424
2A	.
=425	=425
4A-	.
!LO:TX:t=cresc.	!
(8A-L	.
8A-)	.
=426	=426
2G	.
=427	=427
4GG	.
8GL	.
8G	.
=428	=428
2F#	pp
=429	=429
2E	f
=430	=430
2f#	p
=431	=431
2G#	f
=432	=432
2a	p
=433	=433
4C	pp
(8CL	.
8C)	.
=434	=434
[2BB	.
=435	=435
4BB	.
(8BBL	.
8BB)	.
=436	=436
4.BB	.
8r	.
=437	=437
2r	.
=438	=438
2r	.
=439	=439
2r	.
=440	=440
4r	.
8r	.
8E-	p
=441	=441
!LO:TX:t=cresc.	!
(4A-	<
4D	.
=442	=442
4E-	.
4AA	.
=443	=443
4BB-	.
4EE	.
=444	=444
4FF)	[
[4CC	sf
=445	=445
4CC	.
4r	.
=446	=446
(qqE-	f
qqD-)	.
qqC	.
4D-	.
4r	.
=447	=447
(qqF	f
qqE-)	.
qqD	.
4E-	.
4r	.
=448	=448
(qqG	f
qqF)	.
qqE	.
4F	.
4r	.
=449	=449
4r	.
8r	.
(8AA	sf
=450	=450
8DL)	.
8r	.
8r	.
(8EE	sf
=451	=451
4AA)	p
!LO:TX:t=decresc	!
(4DD	.
=452	=452
2DD#)	.
=453	=453
(qqDD#	pp
qqEE)	.
qqFF	.
2EE	.
=454	=454
(qqEE	<
qqFF)	.
!LO:TX:t=cresc.	!
qqGG	.
2FF	.
=455	=455
(qqEE#	.
qqFF#)	.
qqGG	.
2FF#	.
=456	=456
(qqFF#	.
qqGG)	.
qqAA	.
2GG	.
=457	=457
(qqGG	.
qqAA-)	.
qqBB-	.
2AA-	.
=458	=458
(qqGG#	ff
qqAA)	.
qqBB-	.
4AA	.
4A	[
=459	=459
!LO:TX:t=attacca subito il Allegretto	!
(4B-	p
!LO:TX:t=decresc	!
8E-L	.
8G-)	.
=460	=460
4F	pp
16FFLL	.
==461	==461
*M3/8	*
!LO:TX:a:B:t=Allegretto quasi Allegro	!
16r	.
8r	.
=462	=462
8BB-L	p
4FF	sf
=463	=463
8AAL	.
4FF	sf
=464	=464
4.r	.
=465	=465
4.r	.
=466	=466
4.r	.
=467	=467
4.r	.
=468	=468
4.r	.
=469	=469
4.r	.
=470	=470
8BB-L	.
4FF	sf
=471	=471
8AAL	.
4FF	sf
=472	=472
(8AL	p
8G	.
8F	.
=473	=473
8BB-L	.
8C	.
8D)	.
=474	=474
(8E-L	.
8AA	.
8BB	.
=475	=475
8CL	.
8F#	.
8G)	.
=476	=476
(8E-L	.
8C)	.
8F	.
=477	=477
8BB-L	.
16r	.
(16D	.
16d	.
16c)	.
=478	=478
(16cLL	.
16B-)	.
16B-	.
16A	.
16G	.
16F	.
=479	=479
8FL	.
8E	.
8r	.
=480	=480
8CL	.
8E	.
8C	.
=481	=481
8FL	.
8r	.
8r	.
=482	=482
8r	.
8D	.
8F	.
=483	=483
4G	.
8r	.
=484	=484
8GL	.
8B	.
8G	.
=485	=485
8cL	.
8r	.
(8B	.
=486	=486
8cL)	.
8r	.
(8B	.
=487	=487
8cL)	.
8r	.
8r	.
=488	=488
8r	.
8r	.
(8BB	.
=489	=489
8CL)	.
8r	.
(8BB	.
=490	=490
8C)	.
8r	.
(8BB	.
=491	=491
8CL)	.
8r	.
8r	.
=492	=492
4.r	.
=493	=493
4.r	.
=494	=494
(4.E	.
=495	=495
4F)	.
8r	.
=496	=496
(4.E	.
=497	=497
4F)	.
8r	.
=498	=498
(4.E	.
=499	=499
8FL)	.
8r	.
8BB-	.
=500	=500
8CL	.
8r	.
8CC	.
=501	=501
8FFL	.
8r	.
8r	.
=502	=502
(16B-LL	p
16A	.
16c	[
16B-	>
16A	.
16G)	]
=503	=503
4F	.
8r	.
=504	=504
(16B-LL	.
16A	.
16c	.
16B-	.
16A	.
16G)	.
=505	=505
4F	.
8r	.
=506	=506
(16B-LL	.
16A	.
16c	.
16B-	.
16A	.
16G)	.
=507	=507
!LO:TX:t=cresc.	!
(16FLL	<
16G	.
16A	.
16B-	.
16c	.
16d)	.
=508	=508
8eL	.
8e	.
8e-	[
=509	=509
(4.d	sf
=510	=510
4.d-)	[
=511	=511
8CL	p
8c	.
8r	.
=512	=512
8CL	.
8c	.
8r	.
=513	=513
!LO:TX:t=cresc.	!
(16FFLL	.
16GG	.
16AA	.
16BB-	.
16C	.
16D)	.
=514	=514
8EL	.
8E	.
8E-	.
=515	=515
4.D	p
=516	=516
(4.F	sf
=517	=517
4.C)	p
=518	=518
4.BB	sf
=519	=519
8CL	p
8c	.
8r	.
=520	=520
8CL	.
8c	.
8r	.
=521	=521
8FFL	.
8r	.
8F	.
=522	=522
8FFL	.
8r	.
8F	.
=523	=523
8FFL	.
8r	.
8F	.
=524	=524
8FFL	.
8r	.
8F	.
=525	=525
!LO:TX:t=cresc.	!
8FFL	<
8r	.
8F	.
=526	=526
8FFL	.
8r	.
8F	.
=527	=527
8FFL	.
8r	.
8F	.
=528	=528
8FFL	.
8r	.
8F	.
=529	=529
8FFL	[
8r	.
8F	f
=530	=530
4.r	.
=531	=531
4.r	.
=532	=532
4.r	.
=533	=533
8BB-L	pp
4FF	sf
=534	=534
8AAL	.
4FF	sf
=535	=535
4.r	.
=536	=536
4.r	.
=537	=537
4.r	.
=538	=538
4.r	.
=539	=539
4.r	.
=540	=540
4.r	.
=541	=541
8BB-L	.
4FF	sf
=542	=542
8AAL	.
4FF	sf
=543	=543
(8AL	p
8G	.
8F	.
=544	=544
8BB-L	.
8C	.
8D)	.
=545	=545
(8E-L	.
8AA	.
8BB	.
=546	=546
8CL	.
8F#	.
8G)	.
=547	=547
(8E-L	.
8C)	.
8F	.
=548	=548
8BB-L	.
16r	.
(16B-	.
16d-	.
16c)	.
=549	=549
(16cLL	.
16B-)	.
16B-	.
16A-	.
16G	.
16F	.
=550	=550
(8FL	.
8E)	.
8r	.
=551	=551
8CL	.
8E	.
8C	.
=552	=552
4F	.
8r	.
=553	=553
4.r	.
=554	=554
4.r	.
=555	=555
8BB-L	.
8D	.
8BB-	.
=556	=556
8E-L	.
8r	.
(8d	.
=557	=557
8e-L)	.
8r	.
(8d	.
=558	=558
8e-L)	.
8r	.
8r	.
=559	=559
8r	.
8r	.
(8D	.
=560	=560
8E-L)	.
8r	.
(8BB-	.
=561	=561
8E-L)	.
8r	.
!LO:TX:t=cresc.	!
(8BB-	<
=562	=562
8E-L)	.
8r	.
(8GG	.
=563	=563
16CLL)	[
(16G	f
16E-	.
16D	.
16C	.
16BB-)	.
=564	=564
4FF	p
8r	.
=565	=565
4.r	.
=566	=566
4.r	.
=567	=567
(4.A	p
=568	=568
4B-)	[
8r	.
=569	=569
(4.A	.
=570	=570
4B-)	.
8r	.
=571	=571
(4.A	.
=572	=572
8B-L)	.
8r	.
8E-	.
=573	=573
8FL	.
8r	.
8FF	.
=574	=574
8BB-L	.
8r	.
8r	.
=575	=575
(16e-LL	p
16d	<
16f	.
16e-	>
16d	.
16c)	]
=576	=576
4B-	.
8r	.
=577	=577
(16e-LL	.
16d	.
16f	.
16e-	.
16d	.
16c)	.
=578	=578
4B-	.
8r	.
=579	=579
(16E-LL	.
16D	.
16F	.
16E-	.
16D	.
16C)	.
=580	=580
!LO:TX:t=cresc.	!
(16BB-LL	.
16C	.
16D	.
16E-	.
16F)	.
16G	.
=581	=581
8AL	.
8A	.
8A-	.
=582	=582
(4.G	sf
=583	=583
4.G-)	]
=584	=584
8FFL	p
8F	.
8r	.
=585	=585
8FFL	.
8F	.
8r	.
=586	=586
!LO:TX:t=cresc.	!
(16BB-LL	.
16C	.
16D	.
16E-	.
16F	.
16G)	.
=587	=587
8AL	.
8A	.
8A-	.
=588	=588
(4.G	.
=589	=589
4.G-)	p
=590	=590
[4.F	.
=591	=591
4.F	.
=592	=592
[4.E-	.
=593	=593
4.E-	.
=594	=594
!LO:TX:t=cresc.	!
(8D-L	.
8C	.
8BB-	.
=595	=595
8AA-L	.
8GG	.
8GG-)	.
=596	=596
(8FFL	.
8EE	.
8FF)	.
=597	=597
(8FL	.
8E	.
8F)	.
=598	=598
8BB-L	.
8r	.
8B-	p
=599	=599
8BB-L	.
8r	.
8B-	.
=600	=600
8AAL	.
8r	.
8A	.
=601	=601
8AAL	.
8r	.
8A	.
=602	=602
!LO:TX:t=cresc.	!
8AA-L	<
8r	.
8A-	.
=603	=603
8AA-L	.
8r	.
8A-	.
=604	=604
8GGL	.
8r	.
8G	.
=605	=605
8GGL	.
8r	.
8G	.
=606	=606
8DDL	.
8r	.
8D	.
=607	=607
8DDL	.
8r	.
8D	.
=608	=608
8EE-L	.
8r	.
8E-	.
=609	=609
8EE-L	.
8r	.
8E-	.
=610	=610
8EEJ	[
(16d-LL	ff
16B-)	.
16G	.
16E	.
=611	=611
16D-LL	.
16BB-	.
16GG	.
16BB-	.
8EE	.
=612||	=612||
*M2/4	*
4FF	pp
4r	.
=613	=613
!LO:TX:t=Tempo I.	!
2r	.
=614	=614
2r	.
=615	=615
2r	.
=616	=616
4AA-	pp
(8AA-L	.
8AA-)	.
=617	=617
2GG	.
=618	=618
4GG	.
(8GL	.
8G)	.
=619	=619
2F#	pp
=620	=620
2F	f
=621	=621
[4E	pp
16ELL	.
!LO:TX:a:B:t=Allegretto	!
16r	.
8r	.
=622||	=622||
*M3/8	*
8AAL	.
4EE	sf
=623	=623
8GG#L	.
4EE	sf
=624	=624
8G#L	p
8F#	.
8E	.
=625	=625
8AL	.
8r	.
8r	.
=626	=626
4.r	.
=627||	=627||
*M2/4	*
!LO:TX:t=cresc.	!
!LO:TX:t=Adagio	!
4AA	.
(8AAL	.
8AA)	.
=628	=628
[4FF#	p
16FF#LL	.
!LO:TX:a:B:t=Allegretto	!
16r	.
8r	.
=629||	=629||
*M3/8	*
8GGL	.
4DD	sf
=630	=630
8FF#L	.
4DD	sf
=631	=631
8FF#L	p
8EE	.
8DD	.
=632	=632
8GGL	.
8r	.
8G	.
=633	=633
8GGL	.
8r	.
8G	.
=634	=634
!LO:TX:t=decresc	!
8CL	.
8r	.
8c	.
=635	=635
8BB-L	.
8r	.
8B-	.
=636	=636
8AAL	pp
8r	.
8A	.
=637	=637
4.r	.
=638	=638
8BB-L	.
4FF	sf
=639	=639
8AAL	.
4FF	sf
=640	=640
4.r	.
=641	=641
4.r	.
=642	=642
4.r	.
=643	=643
4.r	.
=644	=644
4.r	.
=645	=645
4.r	.
=646	=646
(8FL	sf
16E-	.
16D	.
16C	.
16BB-)	.
=647	=647
[4.FF	.
=648	=648
4.FF	.
=649	=649
!LO:TX:t=cresc.	!
(8FL	.
16E-	.
16D	.
16C	.
16BB-)	.
=650	=650
(8E-L	f
8AA	.
8BB	.
=651	=651
8CL	.
8FF#	.
8GG)	.
=652	=652
(8EE-L	.
8CC)	.
8FF	.
=653	=653
8BB-L	.
8D	p
8F	.
=654	=654
8B-L	.
8r	.
(8BB-	.
=655	=655
8CL)	.
8E-	.
8A	.
=656	=656
8cL	.
8r	.
(8C	.
=657	=657
8DL)	.
8F	.
8B-	.
=658	=658
8dL	.
8r	.
(8D	.
=659	=659
4E-	.
8E)	.
=660	=660
!LO:TX:t=cresc.	!
(4F	.
8F#	.
=661	=661
4G)	.
8D	.
=662	=662
(16E-LL	.
16E)	.
(16F	.
16E)	.
16F	.
16FF	.
=663	=663
8BB-L	.
16r	.
(16BB-	p
16B-	.
16A)	.
=664	=664
(16ALL	.
16G)	.
16G	.
16F	.
16E-	.
16D	.
=665	=665
4C	.
8r	.
=666	=666
4.r	.
=667	=667
8r	.
16r	.
(16D	p
16d	.
16c)	.
=668	=668
(16cLL	.
16B-)	.
16B-	.
16A-	.
16G	.
16F	.
=669	=669
8E-L	.
8G	.
8B-	.
=670	=670
(4e-	.
8e	.
=671	=671
8fJ)	.
(8FL	.
8F#	.
=672	=672
8GL	.
8A-	.
8D)	.
=673	=673
!LO:TX:t=cresc.	!
(8EE-L	.
8DD	.
8EE-)	.
=674	=674
(8EEL	.
8DD#	.
8EE)	.
=675	=675
(8FFL	.
8EE	.
8FF)	.
=676	=676
8FL	.
8FF	.
8FF	.
=677	=677
8BB-L	.
8r	.
8FF	p
=678	=678
8BB-L	.
8r	.
8FF	.
=679	=679
8CL	.
8r	.
8FF	.
=680	=680
8CL	.
8r	.
8FF	.
=681	=681
8BB-L	.
16r	.
(16FF	.
16D	.
16C	.
=682	=682
8BB-L)	.
16r	.
(16FF	.
16D	.
16BB-	.
=683	=683
8AAL)	.
8r	.
8F	.
=684	=684
8FFL	.
8r	.
8F	.
=685	=685
8FFL	.
8r	.
8r	.
=686	=686
8r	.
16r	.
16FF	.
16AA	.
16C	.
=687	=687
[4.F	.
=688	=688
8.FL	.
!LO:TX:a:B:t=poco Adagio	!
16r	.
8r	.
=689	=689
4.B-	.
=690	=690
8.B-L	.
16r	.
8r	.
=691	=691
4.A	.
=692	=692
8.B-L	.
!LO:TX:a:B:t=Prestissimo	!
16r	.
8r	.
=693	=693
4.r	.
=694	=694
4.r	.
=695	=695
4.r	.
=696	=696
4.r	.
=697	=697
4.r	.
=698	=698
4.r	.
=699	=699
4.r	.
=700	=700
4.r	.
=701	=701
4.r	.
=702	=702
4.r	.
=703	=703
4.r	.
=704	=704
4.r	.
=705	=705
(4BB-	f
8AA-)	.
=706	=706
8GGL	.
8FF	.
8EE-	.
=707	=707
8DDL	.
8EE-	.
8EE	.
=708	=708
8FFL	.
8GG	.
8AA	.
=709	=709
16BB-LL	ff
16d	.
16c	.
16B-	.
16A	.
16G	.
=710	=710
16FLL	.
16G	.
16F	.
16E-	.
16D	.
16C	.
=711	=711
8BB-L	.
8r	.
8r	.
=712	=712
8FFL	.
8r	.
8r	.
=713	=713
8BB-L	.
16r	.
==	==
*-	*-
